X:27
T:Barbara
R:bourr\'ee (2-time)
S:Trio Sautivet - Partir Revenir % 10
M:2/4
L:1/8
G:sax
K:G
|: BG- GB | e3f | g>f ed | eA- AB | cF- FG |
[1 A3 B | cA dc | c2 B2 :|2 A3 c | B>A GF | E4 ||
|: BG- GB | A/B/A/G/ FA | G/A/G/F/ EG | F3 G |
 A>B AF | B>c BA |1 GF GA | BA- AF :|2 GA/G/ FG/F/ | E4 |]

